assets/features/payment-flow/Public Bank.svg

<svg width="200" height="200" viewBox="0 0 200 200" fill="none" xmlns="http://www.w3.org/2000/svg">
<rect x="0.5" y="0.5" width="199" height="199" rx="39.5" fill="white"/>
<rect x="0.5" y="0.5" width="199" height="199" rx="39.5" stroke="#8D8D8D"/>
<path fill-rule="evenodd" clip-rule="evenodd" d="M148 96.6408L143.988 100.207L148 103.798V133.23L120.771 160H79.6948L52 132.791V104.238L56.4778 100.207L52 96.2015V67.6486L80.1348 40H120.305L148 67.2093V96.6408ZM133.713 118.501L129.701 114.47L120.771 123.411H79.6948L70.7652 114.935L67.1933 118.501L100.22 151.499L133.713 118.501ZM100.22 114.935L115.413 100.233L100.22 85.5039L85.4926 100.233L100.22 114.935ZM133.713 81.9121L100.22 48.9147L67.1933 81.9121L70.7652 85.9173L80.1348 76.5633H120.305L129.701 85.478L133.713 81.9121Z" fill="#E42126"/>
</svg>

<svg xmlns="http://www.w3.org/2000/svg" width="200" height="200" fill="none" viewBox="0 0 200 200"><rect width="199" height="199" x=".5" y=".5" fill="#fff" rx="39.5"/><rect width="199" height="199" x=".5" y=".5" stroke="#8d8d8d" rx="39.5"/><path fill="#e42126" fill-rule="evenodd" d="m148 96.64-4.012 3.567 4.012 3.591v29.432L120.771 160H79.695L52 132.791v-28.553l4.478-4.031L52 96.202V67.649L80.135 40h40.17L148 67.21zm-14.287 21.861-4.012-4.031-8.93 8.941H79.695l-8.93-8.476-3.572 3.566 33.027 32.998zm-33.493-3.566 15.193-14.702-15.193-14.73-14.727 14.73zm33.493-33.023L100.22 48.915 67.193 81.912l3.572 4.005 9.37-9.354h40.17l9.396 8.915z" clip-rule="evenodd"/></svg>
